X:1
T:The Golden Keyboard
C:Martin Mulhaire
Z:Philippe Murphy 2006-05-25
W: Next: Green Gates
R:reel
S:Eamonn Cotter, Wooden Flute Obsession
M:4/4
L:1/8
K:Edor
BGEF GFGA | B2gB fBeB | BGEF GBAG | (3FED AD BDAF |
~E3 F ~G3 A | B2gB fBec | d2fe dBAF | DFAF GE ~E2 :|
Be ~e2 Be ~e2 | Beed edBc | d ~A3 EAce | d2fe dBAF |
~E3 F ~G3 A | B2gB fBec | d2fe dBAF | DFAF GE ~E2 :|


